X:1007
T:Guenille, La
T:Guenilles, Les
T:Reel de la Guenille
R:reel
H:Also played without third part. Guenille = rag.
O:Quebec
Z:id:hn-reel-1007
M:C|
L:1/8
K:D
Acde fdfd | cdef gece | Acde fdfd |1 cdec d2B2 :|2 cdec defg ||
|: a2ag f2d2 | cdef gefg | abag f2d2 |1 cdec defg :|2 cdec d2f2 ||
|: g2eg f2df | edcB Acef | g2eg f2df |1 efec d2f2 :|2 egfe d2B2 ||

